X: 8163
T: Coolata
R: jig
M: 6/8
K: Gmajor
D|GFG AFD|GFG Bcd|ege dBG|ABA AFD|
GFG AFD|GFG Bcd|ege dBG|AGF G2:|
|:d|ggg bge|d^cd ecA|B2 g gfg|a^ga afd|
ggg bge|d^cd ecA|d2 g dBG|AGF G2:|

